src/dark/hiso font dark_25A7.svg

<svg xmlns="http://www.w3.org/2000/svg" width="99" height="126" viewBox="0 0 99 126"><path fill="#000101" d="M45 79.72l-24.75-12.099v-10.371l24.75 12.112v10.358zm-27-13.47l-9.361-4.69v-10.34l9.361 4.68v10.35zm-1.711-3.71l-2.271-3.65 2.102-1.27-.521-.85-2.106 1.279-2.282-3.659-.851.529 2.271 3.641-2.111 1.279.522.86 2.119-1.29 2.278 3.66.85-.529zm16.461 27.8v.16l12.41 6.17v-13.5l-12.41-6.17v13.34zm12.41 9.142l-36.531-18.262v3.421l36.531 18.27v-3.429zm35.84-49.982v54l-27 13.5-54-27v-54l27-13.5 54 27zm-30 15.35l-48-24v47.3l48 24v-47.3zm24.99-14.5l-48.99-24.5-23.55 11.87 49 24.5 23.54-11.87zm-46.109 27.49l-21.252-10.62v3.35l21.252 10.62v-3.35zm0 7l-21.252-10.62v3.35l21.252 10.62v-3.35z"/></svg>

<svg xmlns="http://www.w3.org/2000/svg" width="99" height="126"><path fill="#000101" d="M45 79.72L20.25 67.621V57.25L45 69.362V79.72zM18 66.25l-9.361-4.69V51.22L18 55.9v10.35zm-1.711-3.71l-2.271-3.65 2.102-1.27-.521-.85-2.106 1.279-2.282-3.659-.851.529 2.271 3.641-2.111 1.279.522.86 2.119-1.29 2.278 3.66.85-.529zm16.461 27.8v.16l12.41 6.17v-13.5L32.75 77v13.34zm12.41 9.142L8.629 81.22v3.421l36.531 18.27v-3.429zM81 49.5v54L54 117 0 90V36l27-13.5 54 27zM51 64.85l-48-24v47.3l48 24v-47.3zm24.99-14.5L27 25.85 3.45 37.72l49 24.5 23.54-11.87zM29.881 77.84L8.629 67.22v3.35l21.252 10.62v-3.35zm0 7L8.629 74.22v3.35l21.252 10.62v-3.35z"/></svg>
